chains/nobletestnet/logo.svg

<svg xmlns="http://www.w3.org/2000/svg" width="600" height="600" fill="none" viewBox="0 0 600 600"><rect width="600" height="600" fill="#020418" rx="300"/><path fill="url(#a)" d="M442.929 338.488c.01 13.792-2.65 27.244-7.92 39.977a104 104 0 0 1-22.634 33.892 104 104 0 0 1-33.903 22.633c-12.715 5.261-26.138 7.94-39.891 7.94h-.505c-22.032 0-43.9-7.183-61.622-20.236-17.84-13.142-31.244-32.048-37.912-53.876a103.5 103.5 0 0 1-4.484-30.291v-77.014c.01-7.337 2.863-14.228 8.056-19.42 5.193-5.183 12.084-8.037 19.402-8.046 7.328.019 14.219 2.892 19.402 8.065 5.173 5.183 8.037 12.074 8.056 19.392v76.994c.01 13.219 5.173 25.661 14.549 35.008a49.2 49.2 0 0 0 25.342 13.49 49.37 49.37 0 0 0 28.584-2.824 49.37 49.37 0 0 0 22.207-18.207 49.3 49.3 0 0 0 8.396-27.477V184.529c0-3.62.699-7.163 2.087-10.511a27.1 27.1 0 0 1 5.949-8.9 27.5 27.5 0 0 1 8.901-5.95c6.687-2.756 14.306-2.766 21.003 0a27.4 27.4 0 0 1 8.9 5.95 27.4 27.4 0 0 1 5.95 8.9 27.3 27.3 0 0 1 2.087 10.511zM226.517 226.486c-9.357 9.356-14.52 21.799-14.53 35.018v153.969c0 7.327-2.853 14.218-8.046 19.411-10.366 10.385-28.458 10.385-38.833 0-5.183-5.193-8.037-12.084-8.037-19.411v-153.96a104.52 104.52 0 0 1 25.391-68.191 104.5 104.5 0 0 1 63.758-35.056 104 104 0 0 1 15.306-1.136c19.674 0 39.085 5.571 55.877 16.199a104.4 104.4 0 0 1 21.314 17.877c.058-.058.097-.126.155-.184l.146.553c10.239 11.327 17.965 24.837 22.459 39.647l.427 1.408a104 104 0 0 1 4.115 28.874v76.984a27.3 27.3 0 0 1-4.629 15.238 27.5 27.5 0 0 1-12.307 10.113c-3.271 1.359-6.727 1.999-10.211 2.038v.049c-.136 0-.262-.039-.398-.039-1.747 0-3.504-.117-5.251-.466-1.009-.194-1.989-.505-2.96-.815v-.136c-.66-.214-1.339-.32-1.98-.592a27.5 27.5 0 0 1-12.307-10.113 27.35 27.35 0 0 1-4.63-15.238v-69.725h-.019v-7.308a49.58 49.58 0 0 0-14.627-35.095 49.4 49.4 0 0 0-16.16-10.715c-6.066-2.495-12.511-3.834-19.014-3.717-13.22.009-25.653 5.173-35.009 14.519m223.953-76.955c-9.356-9.347-21.78-14.5-34.989-14.52h-.02c-13.21.039-25.623 5.202-34.96 14.549-9.318 9.346-14.462 21.76-14.482 34.969v5.561c-13.918-20.333-33.543-36.25-56.624-45.684-28.758-11.724-60.729-12.53-90.061-2.184-24.788 8.794-45.918 24.788-61.098 46.257-15.18 21.479-23.217 46.732-23.236 73.025v153.969c0 13.228 5.154 25.661 14.51 35.017 9.347 9.356 21.79 14.51 35.019 14.51s25.662-5.154 35.019-14.51 14.51-21.789 14.51-35.017v-5.523a126.5 126.5 0 0 0 56.615 45.655c28.739 11.724 60.7 12.491 90.022 2.174 24.779-8.783 45.889-24.788 61.079-46.257 15.17-21.478 23.207-46.712 23.226-72.995V184.519c-.019-13.209-5.183-25.632-14.53-34.988"/><defs><linearGradient id="a" x1="120.441" x2="463.109" y1="462.562" y2="95.463" gradientUnits="userSpaceOnUse"><stop offset=".05" stop-color="#fff"/><stop offset=".38" stop-color="#A7B3FF"/><stop offset="1" stop-color="#74A4FF"/></linearGradient></defs></svg>

<svg width="600" height="600" viewBox="0 0 600 600" fill="none" xmlns="http://www.w3.org/2000/svg">
<rect width="600" height="600" rx="300" fill="#020418"/>
<path d="M442.929 338.488C442.939 352.28 440.279 365.732 435.009 378.465C429.729 391.218 422.11 402.613 412.375 412.357C402.611 422.111 391.206 429.72 378.472 434.99C365.757 440.251 352.334 442.93 338.581 442.93H338.503H338.484H338.076C316.044 442.93 294.176 435.747 276.454 422.694C258.614 409.552 245.21 390.646 238.542 368.818C235.553 358.977 234.039 348.795 234.058 338.527V261.513C234.068 254.176 236.921 247.285 242.114 242.093C247.307 236.91 254.198 234.056 261.516 234.047C268.844 234.066 275.735 236.939 280.918 242.112C286.091 247.295 288.955 254.186 288.974 261.504V338.498C288.984 351.717 294.147 364.159 303.523 373.506C310.473 380.436 319.237 385.104 328.865 386.996C338.484 388.908 348.374 387.928 357.449 384.172C366.514 380.416 374.192 374.127 379.656 365.965C385.13 357.812 388.032 348.32 388.052 338.488V184.529C388.052 180.909 388.751 177.366 390.139 174.018C391.517 170.679 393.516 167.68 396.088 165.118C398.651 162.565 401.64 160.556 404.989 159.168C411.676 156.412 419.295 156.402 425.992 159.168C429.341 160.556 432.33 162.565 434.892 165.118C437.455 167.68 439.454 170.679 440.842 174.018C442.23 177.366 442.929 180.909 442.929 184.529V338.488ZM226.517 226.486C217.16 235.842 211.997 248.285 211.987 261.504V415.473C211.987 422.8 209.134 429.691 203.941 434.884C193.575 445.269 175.483 445.269 165.108 434.884C159.925 429.691 157.071 422.8 157.071 415.473V261.513C157.091 236.483 166.107 212.267 182.462 193.322C198.826 174.377 221.46 161.934 246.22 158.266C251.315 157.509 256.43 157.13 261.526 157.13C281.2 157.13 300.611 162.701 317.403 173.329C325.332 178.347 332.486 184.374 338.717 191.206C338.775 191.148 338.814 191.08 338.872 191.022L339.018 191.575C349.257 202.902 356.983 216.412 361.477 231.222L361.904 232.63C364.631 242.025 366.01 251.74 366.019 261.504V338.488C366.019 343.933 364.418 349.203 361.39 353.726C358.361 358.249 354.11 361.743 349.083 363.839C345.812 365.198 342.356 365.838 338.872 365.877V365.926C338.736 365.926 338.61 365.887 338.474 365.887C336.727 365.887 334.97 365.77 333.223 365.421C332.214 365.227 331.234 364.916 330.263 364.606V364.47C329.603 364.256 328.924 364.15 328.283 363.878C323.255 361.781 319.004 358.287 315.976 353.765C312.948 349.232 311.346 343.962 311.346 338.527V268.802H311.327V261.494C311.307 254.923 310.026 248.527 307.512 242.491C304.989 236.444 301.349 231.028 296.7 226.399C292.051 221.779 286.616 218.178 280.54 215.684C274.474 213.189 268.029 211.85 261.526 211.967C248.306 211.976 235.873 217.14 226.517 226.486ZM450.47 149.531C441.114 140.184 428.69 135.031 415.481 135.011H415.461C402.251 135.05 389.838 140.213 380.501 149.56C371.183 158.906 366.039 171.32 366.019 184.529V190.09C352.101 169.757 332.476 153.84 309.395 144.406C280.637 132.682 248.666 131.876 219.334 142.222C194.546 151.016 173.416 167.01 158.236 188.479C143.056 209.958 135.019 235.211 135 261.504V415.473C135 428.701 140.154 441.134 149.51 450.49C158.857 459.846 171.3 465 184.529 465C197.758 465 210.191 459.846 219.548 450.49C228.904 441.134 234.058 428.701 234.058 415.473V409.95C247.986 430.274 267.592 446.191 290.673 455.605C319.412 467.329 351.373 468.096 380.695 457.779C405.474 448.996 426.584 432.991 441.774 411.522C456.944 390.044 464.981 364.81 465 338.527V184.519C464.981 171.31 459.817 158.887 450.47 149.531Z" fill="url(#paint0_linear_874_532)"/>
<defs>
<linearGradient id="paint0_linear_874_532" x1="120.441" y1="462.562" x2="463.109" y2="95.4635" gradientUnits="userSpaceOnUse">
<stop offset="0.05" stop-color="white"/>
<stop offset="0.38" stop-color="#A7B3FF"/>
<stop offset="1" stop-color="#74A4FF"/>
</linearGradient>
</defs>
</svg>
